client/public/img/game/shared/trails/firework_rocket_trail.svg

<?xml version="1.0" encoding="UTF-8" standalone="no"?>
<svg
   width="162"
   height="23"
   viewBox="0 0 162 23"
   fill="none"
   version="1.1"
   id="svg18"
   xmlns="http://www.w3.org/2000/svg"
   xmlns:svg="http://www.w3.org/2000/svg">
  <path
     d="M0.623047 6.2627L109 9.2627V13.0154L0.623047 16.0154V6.2627Z"
     fill="url(#paint0_radial_2265_272)"
     id="path1" />
  <path
     d="M109 14.4191V8.27155L85.3582 2.89893L95.1246 8.85092L81.288 11.955L95.342 14.4191L87.5467 21.0111L109 14.4191Z"
     fill="url(#paint1_linear_2265_272)"
     id="path2" />
  <path
     d="M109 14.4191V8.27155L85.3582 2.89893L95.1246 8.85092L81.288 11.955L95.342 14.4191L87.5467 21.0111L109 14.4191Z"
     fill="url(#paint2_linear_2265_272)"
     id="path3" />
  <path
     d="M114.56 7.04395H109V15.2439H114.56V7.04395Z"
     fill="#CA9747"
     stroke="#4F3917"
     stroke-width="2"
     stroke-linecap="round"
     stroke-linejoin="round"
     id="path4" />
  <path
     d="M114.565 3.23242V19.0458H146.794V3.23242H114.565Z"
     fill="#DC8888"
     id="path5" />
  <path
     d="M114.565 3.23242V19.0458H146.794V3.23242H114.565Z"
     fill="#DC8888"
     id="path6" />
  <path
     d="M122.677 19.0459L114.565 4.99683V3.23242H118.766L127.896 19.0459H122.677Z"
     fill="#D9D9D9"
     id="path7" />
  <path
     d="M138.591 19.0459H133.372L124.242 3.23242H129.461L138.591 19.0459Z"
     fill="#D9D9D9"
     id="path8" />
  <path
     d="M146.794 14.7292V19.0459H144.067L134.938 3.23242H140.156L146.794 14.7292Z"
     fill="#D9D9D9"
     id="path9" />
  <path
     d="M114.549 3.2168V19.0703H146.789V3.2168H114.549Z"
     stroke="#4F1717"
     stroke-width="2"
     stroke-linecap="round"
     stroke-linejoin="round"
     id="path10" />
  <path
     fill-rule="evenodd"
     clip-rule="evenodd"
     d="M160.949 11.1143L146.837 21.2877L146.799 1L160.949 11.1143Z"
     fill="#FB6969"
     stroke="#630303"
     stroke-width="2"
     stroke-linecap="round"
     stroke-linejoin="round"
     id="path11" />
  <defs
     id="defs18">
    <radialGradient
       id="paint0_radial_2265_272"
       cx="0"
       cy="0"
       r="1"
       gradientUnits="userSpaceOnUse"
       gradientTransform="translate(109 11.139) rotate(-180) scale(108.377 8.41379)">
      <stop
         stop-color="#E1A530"
         id="stop11" />
      <stop
         offset="0.5"
         stop-color="#E28631"
         stop-opacity="0.3"
         id="stop12" />
      <stop
         offset="1"
         stop-color="#E23C32"
         stop-opacity="0"
         id="stop13" />
    </radialGradient>
    <linearGradient
       id="paint1_linear_2265_272"
       x1="95.2923"
       y1="3.2168"
       x2="95.2923"
       y2="21.0111"
       gradientUnits="userSpaceOnUse">
      <stop
         offset="0.2"
         stop-color="#E7BB1D"
         stop-opacity="0"
         id="stop14" />
      <stop
         offset="0.5"
         stop-color="#ECC94B"
         id="stop15" />
      <stop
         offset="0.8"
         stop-color="#E7BB1D"
         stop-opacity="0"
         id="stop16" />
    </linearGradient>
    <linearGradient
       id="paint2_linear_2265_272"
       x1="109"
       y1="12.114"
       x2="81.585"
       y2="12.114"
       gradientUnits="userSpaceOnUse">
      <stop
         stop-color="#E7BB1D"
         id="stop17" />
      <stop
         offset="1"
         stop-color="#E7BB1D"
         stop-opacity="0"
         id="stop18" />
    </linearGradient>
  </defs>
</svg>

<svg xmlns="http://www.w3.org/2000/svg" width="162" height="23" fill="none"><path fill="url(#a)" d="m.623 6.263 108.377 3v3.752l-108.377 3z"/><path fill="url(#b)" d="M109 14.42V8.271L85.358 2.899l9.767 5.952-13.837 3.104 14.054 2.464-7.795 6.592z"/><path fill="url(#c)" d="M109 14.42V8.271L85.358 2.899l9.767 5.952-13.837 3.104 14.054 2.464-7.795 6.592z"/><path fill="#CA9747" stroke="#4F3917" stroke-linecap="round" stroke-linejoin="round" stroke-width="2" d="M114.56 7.044H109v8.2h5.56z"/><path fill="#DC8888" d="M114.565 3.232v15.814h32.229V3.232z"/><path fill="#DC8888" d="M114.565 3.232v15.814h32.229V3.232z"/><path fill="#D9D9D9" d="m122.677 19.046-8.112-14.05V3.233h4.201l9.13 15.814zM138.591 19.046h-5.219l-9.13-15.814h5.219zM146.794 14.73v4.316h-2.727l-9.129-15.814h5.218z"/><path stroke="#4F1717" stroke-linecap="round" stroke-linejoin="round" stroke-width="2" d="M114.549 3.217V19.07h32.24V3.217z"/><path fill="#FB6969" fill-rule="evenodd" stroke="#630303" stroke-linecap="round" stroke-linejoin="round" stroke-width="2" d="m160.949 11.114-14.112 10.174L146.799 1z" clip-rule="evenodd"/><defs><linearGradient id="b" x1="95.292" x2="95.292" y1="3.217" y2="21.011" gradientUnits="userSpaceOnUse"><stop offset=".2" stop-color="#E7BB1D" stop-opacity="0"/><stop offset=".5" stop-color="#ECC94B"/><stop offset=".8" stop-color="#E7BB1D" stop-opacity="0"/></linearGradient><linearGradient id="c" x1="109" x2="81.585" y1="12.114" y2="12.114" gradientUnits="userSpaceOnUse"><stop stop-color="#E7BB1D"/><stop offset="1" stop-color="#E7BB1D" stop-opacity="0"/></linearGradient><radialGradient id="a" cx="0" cy="0" r="1" gradientTransform="matrix(-108.377 0 0 -8.41379 109 11.139)" gradientUnits="userSpaceOnUse"><stop stop-color="#E1A530"/><stop offset=".5" stop-color="#E28631" stop-opacity=".3"/><stop offset="1" stop-color="#E23C32" stop-opacity="0"/></radialGradient></defs></svg>
